X: 19051
T: Inverpolly
R: waltz
M: 3/4
K: Gmajor
|:BAGJg{a}gf|d2(3DEG {c}AB|cefcec|d3zd{a}e|dcEGcd|cBG2Bc|
dG{A}FD (3DEG|JA3DGA|JBAGJg{a}gf|d2 (3DEG {c}AB|cefcec|d3zd{a}e|
dcEGcd|cBG2Bc|dBGecA|BcdeJf2|d~B3Jf2|dzg{a}gJf2|
dBJa3g|abJ.fz {a}ed|Bg{a}gfg{a}g|Jf2d~B3|cEGcJed|JB2zcde|
Jf2d~B3|Jf{a}fdBg{a}g|Jf2dBJa2-|agabJ.fz|{a}edBg{a}gf|g{a}gJf2d~B-|
~B2cEGc|{c}BAG3z|1 GA:|2 z{c}A.G{A}ED2-|D6||

